packages/icons/raw/imported/GenericInfoAlternative.svg

<svg width="32" height="32" viewBox="0 0 32 32" fill="none" xmlns="http://www.w3.org/2000/svg">
<path d="M16.5 19.8C16.5 19.5239 16.2761 19.3 16 19.3C15.7239 19.3 15.5 19.5239 15.5 19.8H16.5ZM15.5 20.75C15.5 21.0261 15.7239 21.25 16 21.25C16.2761 21.25 16.5 21.0261 16.5 20.75H15.5ZM16 17.6625L15.6257 17.331C15.5447 17.4224 15.5 17.5403 15.5 17.6625H16ZM15.5 19.8V20.75H16.5V19.8H15.5ZM13.65 14.1C13.65 12.8021 14.7021 11.75 16 11.75V10.75C14.1498 10.75 12.65 12.2498 12.65 14.1H13.65ZM16 11.75C17.2979 11.75 18.35 12.8021 18.35 14.1H19.35C19.35 12.2498 17.8502 10.75 16 10.75V11.75ZM15.5 17.6625V17.9H16.5V17.6625H15.5ZM18.35 14.1C18.35 14.6291 18.0042 15.1381 17.4162 15.7026C17.1296 15.9776 16.817 16.2375 16.5001 16.5083C16.1924 16.7712 15.8767 17.0476 15.6257 17.331L16.3743 17.994C16.5732 17.7694 16.8387 17.5343 17.1497 17.2686C17.4515 17.0107 17.7952 16.7249 18.1087 16.424C18.7207 15.8364 19.35 15.0721 19.35 14.1H18.35ZM25 16C25 20.9706 20.9706 25 16 25V26C21.5228 26 26 21.5228 26 16H25ZM16 25C11.0294 25 7 20.9706 7 16H6C6 21.5228 10.4772 26 16 26V25ZM7 16C7 11.0294 11.0294 7 16 7V6C10.4772 6 6 10.4772 6 16H7ZM16 7C20.9706 7 25 11.0294 25 16H26C26 10.4772 21.5228 6 16 6V7Z" fill="black"/>
</svg>

<svg width="32" height="32" fill="none" xmlns="http://www.w3.org/2000/svg"><path d="M16.5 19.8a.5.5 0 0 0-1 0h1Zm-1 .95a.5.5 0 0 0 1 0h-1Zm.5-3.087-.374-.332a.5.5 0 0 0-.126.332h.5Zm-.5 2.137v.95h1v-.95h-1Zm-1.85-5.7A2.35 2.35 0 0 1 16 11.75v-1a3.35 3.35 0 0 0-3.35 3.35h1ZM16 11.75a2.35 2.35 0 0 1 2.35 2.35h1c0-1.85-1.5-3.35-3.35-3.35v1Zm-.5 5.913v.237h1v-.237h-1Zm2.85-3.563c0 .53-.346 1.038-.934 1.603-.286.275-.599.535-.916.805a8.94 8.94 0 0 0-.874.823l.748.663a8.03 8.03 0 0 1 .776-.725c.302-.258.645-.544.959-.845.612-.588 1.241-1.352 1.241-2.324h-1ZM25 16a9 9 0 0 1-9 9v1c5.523 0 10-4.477 10-10h-1Zm-9 9a9 9 0 0 1-9-9H6c0 5.523 4.477 10 10 10v-1Zm-9-9a9 9 0 0 1 9-9V6C10.477 6 6 10.477 6 16h1Zm9-9a9 9 0 0 1 9 9h1c0-5.523-4.477-10-10-10v1Z" fill="#000"/></svg>
